assets/icons/loading_coffee_3.svg

<?xml version="1.0" encoding="UTF-8" standalone="no"?>
<svg
   width="75"
   height="41"
   viewBox="0 0 75 41"
   fill="none"
   version="1.1"
   id="svg12"
   sodipodi:docname="loading_coffee_3.svg"
   inkscape:version="1.3 (0e150ed, 2023-07-21)"
   inkscape:export-filename="loading_coffee_3.png"
   inkscape:export-xdpi="389.12"
   inkscape:export-ydpi="389.12"
   xmlns:inkscape="http://www.inkscape.org/namespaces/inkscape"
   xmlns:sodipodi="http://sodipodi.sourceforge.net/DTD/sodipodi-0.dtd"
   xmlns="http://www.w3.org/2000/svg"
   xmlns:svg="http://www.w3.org/2000/svg">
  <defs
     id="defs12" />
  <sodipodi:namedview
     id="namedview12"
     pagecolor="#ffffff"
     bordercolor="#999999"
     borderopacity="1"
     inkscape:showpageshadow="0"
     inkscape:pageopacity="0"
     inkscape:pagecheckerboard="0"
     inkscape:deskcolor="#d1d1d1"
     inkscape:zoom="9.76"
     inkscape:cx="34.32377"
     inkscape:cy="21.670082"
     inkscape:current-layer="svg12"
     showgrid="false" />
  <g
     id="g12"
     transform="translate(-4.1540396,0.90193648)">
    <path
       d="m 50.2443,9.62605 c 3.76,3.65935 3.7315,10.50385 -0.5057,14.85745 -4.4567,10.3144 -11.7374,8.1126 -15.4973,4.4532 -3.76,-3.6593 -2.7141,-13.6999 1.523,-18.0535 4.2372,-4.35364 10.7201,-4.91648 14.48,-1.25715 z"
       fill="#471d12"
       id="path1" />
    <path
       d="m 42.7813,9.0451 c 0.4341,-0.05661 2.4483,-0.0629 2.8119,0 3.4887,0.6064 -0.3624,0.6907 -3.2799,4.0297 -2.4696,2.8269 -7.0554,11.4537 -3.9366,14.8078 -8.589,-3.1012 -3.1452,-17.8637 4.4046,-18.83875 z"
       fill="#6e3d2c"
       id="path2" />
    <path
       d="m 47.4678,11.4808 c 2.6244,0.1862 -4.5833,14.965 -7.4983,14.9952 1.3361,-3.4383 0.9713,-1.8557 -1.3122,-0.7498 -0.4189,-4.4046 3.4422,-11.0549 6.7485,-14.058 0.2679,3.1566 1.0857,-0.2566 2.062,-0.1874 z"
       fill="#874c2b"
       id="path3" />
    <path
       d="m 49.3423,10.9185 c 4.6311,6.8818 -1.1473,17.251 -9.1853,17.8071 4.6298,-2.3552 10.3403,-12.7823 9.1853,-17.8071 z"
       fill="#6e3d2c"
       id="path4" />
    <path
       d="M 55.1275,9.56385 C 59.6906,6.97428 66.2553,8.91146 69.2538,14.1951 77.915,21.3528 73.769,27.73 69.2059,30.3195 64.6428,32.9091 55.2928,29.1031 52.2944,23.8195 49.2959,18.5359 50.5644,12.1534 55.1275,9.56385 Z"
       fill="#471d12"
       id="path5" />
    <path
       d="m 52.4872,16.5683 c 0.0668,-0.4326 0.6228,-2.3685 0.7846,-2.7001 1.5558,-3.181 0.5622,0.5406 2.9545,4.274 2.0255,3.1603 9.0301,9.971 13.1212,7.912 C 63.9729,33.4367 51.3157,24.09 52.486,16.568 Z"
       fill="#6e3d2c"
       id="path6" />
    <path
       d="m 56.1338,12.7476 c 0.9111,-2.4682 13.0919,8.5769 12.3075,11.3846 -2.929,-2.2425 -1.511,-1.4505 -1.0862,1.0508 -4.3466,-0.8267 -9.6554,-6.39 -11.6166,-10.4029 3.1059,0.6234 0.0565,-1.1143 0.3953,-2.0325 z"
       fill="#874c2b"
       id="path7" />
    <path
       d="M 56.1169,10.7906 C 64.0176,8.2637 72.3626,16.7059 70.6538,24.5798 69.684,19.4768 61.2644,11.0836 56.1169,10.7906 Z"
       fill="#6e3d2c"
       id="path8" />
    <path
       d="m 34,18.5004 c 0,5.2467 -4.9249,10 -11,10 -10.5,4 -14,-2.7533 -14,-8 0,-5.2467 7.9249,-11.50003 14,-11.50003 6.0751,0 11,4.25333 11,9.50003 z"
       fill="#471d12"
       id="path9" />
    <path
       d="m 26.5675,15.3156 c 1.0631,-0.0667 2.9503,-0.0944 3.2799,1.2178 0.0667,0.2655 0.0365,1.7563 -0.0931,1.9677 -0.4215,0.6819 -14.1775,5.6413 -14.9953,5.6237 -5.9168,-0.1284 5.3218,-8.4003 11.8085,-8.8105 z"
       fill="#874c2b"
       id="path10" />
    <path
       d="m 23.3807,11.004 c 4.6713,-0.1333 7.7411,3.4032 7.1234,3.7492 -5.8124,-2.0922 -15.9527,2.847 -19.4011,7.9662 -1.0795,-6.41 6.5559,-11.5518 12.2777,-11.7154 z"
       fill="#6e3d2c"
       id="path11" />
    <path
       d="m 29.1917,20.1893 0.0931,3.6548 c -4.2964,3.539 -13.0138,6.176 -17.2448,1.6871 6.1307,-0.0428 11.6085,-3.1125 17.1517,-5.3419 z"
       fill="#6e3d2c"
       id="path12" />
  </g>
</svg>

<svg width="75" height="41" viewBox="0 0 75 41" fill="none" xmlns="http://www.w3.org/2000/svg">
<path d="M50.2443 9.62605C54.0043 13.2854 53.9758 20.1299 49.7386 24.4835C45.2819 34.7979 38.0012 32.5961 34.2413 28.9367C30.4813 25.2774 31.5272 15.2368 35.7643 10.8832C40.0015 6.52956 46.4844 5.96672 50.2443 9.62605Z" fill="#471D12"/>
<path d="M42.7813 9.0451C43.2154 8.98849 45.2296 8.9822 45.5932 9.0451C49.0819 9.6515 45.2308 9.7358 42.3133 13.0748C39.8437 15.9017 35.2579 24.5285 38.3767 27.8826C29.7877 24.7814 35.2315 10.0189 42.7813 9.04385V9.0451Z" fill="#6E3D2C"/>
<path d="M47.4678 11.4808C50.0922 11.667 42.8845 26.4458 39.9695 26.476C41.3056 23.0377 40.9408 24.6203 38.6573 25.7262C38.2384 21.3216 42.0995 14.6713 45.4058 11.6682C45.6737 14.8248 46.4915 11.4116 47.4678 11.4808Z" fill="#874C2B"/>
<path d="M49.3423 10.9185C53.9734 17.8003 48.195 28.1695 40.157 28.7256C44.7868 26.3704 50.4973 15.9433 49.3423 10.9185Z" fill="#6E3D2C"/>
<path d="M55.1275 9.56385C59.6906 6.97428 66.2553 8.91146 69.2538 14.1951C77.915 21.3528 73.769 27.73 69.2059 30.3195C64.6428 32.9091 55.2928 29.1031 52.2944 23.8195C49.2959 18.5359 50.5644 12.1534 55.1275 9.56385Z" fill="#471D12"/>
<path d="M52.4872 16.5683C52.554 16.1357 53.11 14.1998 53.2718 13.8682C54.8276 10.6872 53.834 14.4088 56.2263 18.1422C58.2518 21.3025 65.2564 28.1132 69.3475 26.0542C63.9729 33.4367 51.3157 24.09 52.486 16.568L52.4872 16.5683Z" fill="#6E3D2C"/>
<path d="M56.1338 12.7476C57.0449 10.2794 69.2257 21.3245 68.4413 24.1322C65.5123 21.8897 66.9303 22.6817 67.3551 25.183C63.0085 24.3563 57.6997 18.793 55.7385 14.7801C58.8444 15.4035 55.795 13.6658 56.1338 12.7476Z" fill="#874C2B"/>
<path d="M56.1169 10.7906C64.0176 8.2637 72.3626 16.7059 70.6538 24.5798C69.684 19.4768 61.2644 11.0836 56.1169 10.7906Z" fill="#6E3D2C"/>
<path d="M34 18.5004C34 23.7471 29.0751 28.5004 23 28.5004C12.5 32.5004 9 25.7471 9 20.5004C9 15.2537 16.9249 9.00037 23 9.00037C29.0751 9.00037 34 13.2537 34 18.5004Z" fill="#471D12"/>
<path d="M26.5675 15.3156C27.6306 15.2489 29.5178 15.2212 29.8474 16.5334C29.9141 16.7989 29.8839 18.2897 29.7543 18.5011C29.3328 19.183 15.5768 24.1424 14.759 24.1248C8.8422 23.9964 20.0808 15.7245 26.5675 15.3143V15.3156Z" fill="#874C2B"/>
<path d="M23.3807 11.004C28.052 10.8707 31.1218 14.4072 30.5041 14.7532C24.6917 12.661 14.5514 17.6002 11.103 22.7194C10.0235 16.3094 17.6589 11.1676 23.3807 11.004Z" fill="#6E3D2C"/>
<path d="M29.1917 20.1893L29.2848 23.8441C24.9884 27.3831 16.271 30.0201 12.04 25.5312C18.1707 25.4884 23.6485 22.4187 29.1917 20.1893Z" fill="#6E3D2C"/>
</svg>
